X: 1
T: the Good Teacher
C: Patty Pennebaker Rutins
%D:2021
R: reel
Z: 2021 John Chambers <jc:trillian.mit.edu>
M: 4/4
L: 1/8
K: D
% - - - - -
V: 1 staves=2
fg |\
afdA F2FE | DFAd f2ef | gecB Aceg | fefg a2fg |
afdA F2GF | EDCB, A,2GF | EDCB, A,CEG | FABc d2 :|
|: cd |\
e2ec e2ec | edcB A2^GA | B2BA B2Bc | BA^GF E2cd |
e2ec e2ec | edcB A2^GA | BA^GF EDCB, | A,2 z2 z2 :|
% - - - - -
V: 2
de |\
fdAF D2A,2 | A,DFA d2cd | e2ed e2ed | dcde f2de |
fdAF D2ED | CB,A,G, A,2A,2 | CB,A,G, A,2 G2 | FDEC D2 :|
|: AB |\
cAEC A,CEA | cBA^G E2DC | B,2B,A, B,2^G2 | E6 AB |
cAEC A,CEA | cBA^G E2DC | B,2B,A, B,2^G2 | A2 z2 z2 :|
% - - - - -
%%text For David Kaynor, 2021, after a lifetime of bringing joy to others through music.
